[A]
T2@0V15,4
L3O4D5D5FDDFF+GG+AG+F5D
L3O4A5ABO5CDEFECDO4BO5CO4A5A
L3O4D5D5FD5FF+GG+AG+F5D
L3O4E5B5BO5CO4BAGEF+D+EEE5
L3O5D5F+DF5DF+DFDF+DDD5
L3O5D5F+DF5DF+DFDF+DDD5
L3O5F+5F+5DF5F+DD-CO4BO5CD-D-5
L3O5F+5F+5DF5F+DD-CO4BO5CD-D5

[B]
T2@0V13,4
L3O3DDDDDDDDDDDDDDDD
L3O3EEEEEEEEEEG+G+AAAA
L3O3DDDDDDDDDDDDDDDD
L3O3E5EF+GABO4CO3BGAF+EEEE
L3O3DDD-D-CCO2BBB-B-AAA-GF+5
L3O3DDD-D-CCO2BBB-B-AAA-GF+5
L3O4DDD-D-CCO3BBB-B-AAA-GF+5
L3O3DDD-D-CCO2BBB-B-AAA-GF+5
