[A]
T2@0V15,4
L3O6C5O5FO6C6C4C1CO5B-O6CD
L3O6C5O5FO6C6C4C1CO5B-O6CD
L3O6C4O5F1FB-O6CDC4O5F1FB-O6CD
L3O3O6C4O5F1FB-O6CDC4O5A1O6CD4O5B1O6D
L9O6ER7
L9O6E

[B]
T2@0V13,4
L1O4A6A3AAAAA6B-6
L1O4A6A3AAAAA6B-6
L1O4A6B-3B-B-B-B-A6B-3B-B-B-B-
L1O4A6B-3B-B-B-B-A3AAAAB3BBBB
L1O5E4O4AO5E3E4O4AO5E3E4O4AO5E3E4O4AO5E3
L9O5A

[C]
T2@0V13,4
L3O4F9RDCO3B-
L3O4F9RDCO3B-
L3O4F6DCO3B-O4F6DCO3B-
L3O4F6DCO3B-O4F8
L1O5C+4O4C+O5C+5RO4C+O5C+5RO4C+O5C+5RO4C+O5
L7O5C+R3R

